Numix-Light/24/status/nm-tech-umts.svg

<?xml version="1.0" encoding="UTF-8" standalone="no"?>
<svg
   xmlns:dc="http://purl.org/dc/elements/1.1/"
   xmlns:cc="http://creativecommons.org/ns#"
   xmlns:rdf="http://www.w3.org/1999/02/22-rdf-syntax-ns#"
   xmlns:svg="http://www.w3.org/2000/svg"
   xmlns="http://www.w3.org/2000/svg"
   xmlns:sodipodi="http://sodipodi.sourceforge.net/DTD/sodipodi-0.dtd"
   xmlns:inkscape="http://www.inkscape.org/namespaces/inkscape"
   viewBox="0 0 24 24"
   id="svg2"
   version="1.1"
   inkscape:version="0.91 r"
   sodipodi:docname="nm-tech-umts.svg">
  <metadata
     id="metadata16">
    <rdf:RDF>
      <cc:Work
         rdf:about="">
        <dc:format>image/svg+xml</dc:format>
        <dc:type
           rdf:resource="http://purl.org/dc/dcmitype/StillImage" />
        <dc:title />
      </cc:Work>
    </rdf:RDF>
  </metadata>
  <defs
     id="defs14" />
  <sodipodi:namedview
     pagecolor="#ffffff"
     bordercolor="#666666"
     borderopacity="1"
     objecttolerance="10"
     gridtolerance="10"
     guidetolerance="10"
     inkscape:pageopacity="0"
     inkscape:pageshadow="2"
     inkscape:window-width="1920"
     inkscape:window-height="1056"
     id="namedview12"
     showgrid="true"
     inkscape:zoom="19.666667"
     inkscape:cx="4.1794833"
     inkscape:cy="21.709785"
     inkscape:window-x="0"
     inkscape:window-y="24"
     inkscape:window-maximized="1"
     inkscape:current-layer="svg2">
    <inkscape:grid
       type="xygrid"
       id="grid4149" />
  </sodipodi:namedview>
  <g
     id="g4145">
    <path
       style="fill:#353535;fill-opacity:1;fill-rule:evenodd;stroke:none;stroke-width:1px;stroke-linecap:butt;stroke-linejoin:miter;stroke-opacity:1"
       d="M 21,21 21,4.9999996 5,21 Z"
       id="path4139-3"
       inkscape:connector-curvature="0"
       sodipodi:nodetypes="cccc" />
    <g
       style="font-style:normal;font-variant:normal;font-weight:bold;font-stretch:normal;font-size:12.34567928px;line-height:125%;font-family:Ubuntu;-inkscape-font-specification:'Ubuntu Bold';letter-spacing:0px;word-spacing:0px;fill:#353535;fill-opacity:1;stroke:none;stroke-width:1px;stroke-linecap:butt;stroke-linejoin:miter;stroke-opacity:1"
       id="g4143"
       transform="translate(0.0317792,-6.6886254)">
      <path
         style="fill:#353535;fill-opacity:1"
         sodipodi:nodetypes="csccczcccsccsccczcccscc"
         inkscape:connector-curvature="0"
         id="path4145"
         transform="translate(-0.0317792,-0.3680156)"
         d="m 3,11.056641 0,4.46875 c 0,0.521398 0.068318,1.001578 0.2050781,1.4375 0.1453076,0.427374 0.3636817,0.798976 0.6542969,1.115234 0.2991627,0.307711 0.6739355,0.550971 1.1269531,0.730469 0.4261578,0.160815 0.9361562,0.248047 1.5136719,0.248047 0.5775157,0 1.0875141,-0.08723 1.5136719,-0.248047 C 8.4666895,18.629096 8.8414623,18.385836 9.140625,18.078125 9.4312402,17.761867 9.6496143,17.390265 9.7949219,16.962891 9.931682,16.526969 10,16.046789 10,15.525391 l 0,-4.46875 -2,0 0,4.302734 C 8,15.71837 7.9616931,16.026778 7.8847656,16.283203 7.7992906,16.531081 7.6875414,16.736035 7.5507812,16.898438 7.4054737,17.052293 7.235655,17.162089 7.0390625,17.230469 6.8721752,17.2861 6.6897988,17.324219 6.5,17.324219 c -0.1897988,0 -0.3721752,-0.03812 -0.5390625,-0.09375 C 5.764345,17.162089 5.5945263,17.052293 5.4492188,16.898438 5.3124586,16.736035 5.2007094,16.531081 5.1152344,16.283203 5.0383069,16.026778 5,15.71837 5,15.359375 l 0,-4.302734 z" />
    </g>
    <g
       transform="matrix(-1,0,0,1,-12.253709,-12.565582)"
       id="g4169"
       style="font-style:normal;font-variant:normal;font-weight:bold;font-stretch:normal;font-size:12.34567928px;line-height:125%;font-family:Ubuntu;-inkscape-font-specification:'Ubuntu Bold';letter-spacing:0px;word-spacing:0px;fill:#000000;fill-opacity:1;stroke:none;stroke-width:1px;stroke-linecap:butt;stroke-linejoin:miter;stroke-opacity:1" />
  </g>
</svg>

<svg xmlns="http://www.w3.org/2000/svg" viewBox="0 0 24 24">
 <g>
  <path d="m 21 21 0 -16 -16 16" style="fill:#353535;fill-opacity:1;stroke:none;fill-rule:evenodd"/>
  <g transform="translate(0.0317792,-6.6886254)" style="fill:#353535;fill-opacity:1;stroke:none">
   <path transform="translate(-0.0317792,-0.3680156)" d="m 3 11.06 0 4.469 c 0 0.521 0.068 1 0.205 1.437 0.145 0.427 0.364 0.799 0.654 1.115 0.299 0.308 0.674 0.551 1.127 0.73 0.426 0.161 0.936 0.248 1.514 0.248 0.578 0 1.088 -0.087 1.514 -0.248 c 0.453 -0.179 0.828 -0.423 1.127 -0.73 0.291 -0.316 0.509 -0.688 0.654 -1.115 0.137 -0.436 0.205 -0.916 0.205 -1.437 l 0 -4.469 -2 0 0 4.303 c 0 0.359 -0.038 0.667 -0.115 0.924 -0.085 0.248 -0.197 0.453 -0.334 0.615 -0.145 0.154 -0.315 0.264 -0.512 0.332 -0.167 0.056 -0.349 0.094 -0.539 0.094 c -0.19 0 -0.372 -0.038 -0.539 -0.094 c -0.197 -0.068 -0.366 -0.178 -0.512 -0.332 -0.137 -0.162 -0.249 -0.367 -0.334 -0.615 -0.077 -0.256 -0.115 -0.565 -0.115 -0.924 l 0 -4.303 z"/>
  </g>
 </g>
</svg>
